src/lib/packages/icons/src/assets/filled/bell-notification.svg

<svg width="24" height="24" viewBox="0 0 24 24" fill="none" xmlns="http://www.w3.org/2000/svg">
<path d="M14.167 20.252C13.711 21.033 12.903 21.5 12.005 21.5C11.107 21.5 10.298 21.033 9.843 20.252C9.753 20.097 9.75299 19.906 9.84199 19.751C9.93099 19.596 10.096 19.5 10.276 19.5H13.736C13.915 19.5 14.08 19.596 14.17 19.751C14.26 19.906 14.257 20.098 14.167 20.252ZM20.4 17.69C20.38 17.66 18.5 15.28 18.5 12.5V9C18.5 8.864 18.495 8.731 18.487 8.598C18.478 8.458 18.384 8.384 18.344 8.356C18.308 8.331 18.213 8.28399 18.09 8.32499C17.756 8.43699 17.398 8.49699 17.025 8.49899C15.324 8.51099 13.793 7.23 13.541 5.548C13.414 4.696 13.587 3.89 13.991 3.222C14.095 3.05 14.03 2.82099 13.838 2.76499C12.802 2.45999 11.649 2.40099 10.474 2.67999C7.512 3.38399 5.50999 6.169 5.50999 9.214V12.5C5.50999 15.28 3.63 17.66 3.61 17.69C3.49 17.84 3.47 18.04 3.55 18.22C3.64 18.39 3.81 18.5 4 18.5H20C20.2 18.5 20.37 18.39 20.46 18.22C20.54 18.04 20.52 17.84 20.4 17.69ZM17 3C15.895 3 15 3.895 15 5C15 6.105 15.895 7 17 7C18.105 7 19 6.105 19 5C19 3.895 18.105 3 17 3Z" fill="currentColor"/>
</svg>

<svg xmlns="http://www.w3.org/2000/svg" width="24" height="24" fill="none"><path fill="currentColor" d="M14.167 20.252a2.483 2.483 0 0 1-2.162 1.248 2.482 2.482 0 0 1-2.162-1.248.501.501 0 0 1 .433-.752h3.46a.499.499 0 0 1 .431.752ZM20.4 17.69c-.02-.03-1.9-2.41-1.9-5.19V9c0-.136-.005-.269-.013-.402a.317.317 0 0 0-.143-.242.288.288 0 0 0-.254-.031 3.4 3.4 0 0 1-1.065.174c-1.701.012-3.232-1.269-3.484-2.951a3.466 3.466 0 0 1 .45-2.326c.104-.172.039-.401-.153-.457a6.532 6.532 0 0 0-3.364-.085C7.512 3.384 5.51 6.169 5.51 9.214V12.5c0 2.78-1.88 5.16-1.9 5.19-.12.15-.14.35-.06.53.09.17.26.28.45.28h16c.2 0 .37-.11.46-.28.08-.18.06-.38-.06-.53ZM17 3a2 2 0 1 0-.001 3.999A2 2 0 0 0 17 3Z"/></svg>
